icon-svg/aqara-fp2.svg

<svg xmlns="http://www.w3.org/2000/svg" fill="#44739e" viewBox="0 0 24 24"><path d="M13.064 11.6c-1.12-4.34-4-7.447-6.7-7.447-.1 0-.208 0-.312.014l.168 1.2a.621.621 0 0 1-.53.7.621.621 0 0 1-.7-.53l-.145-1.029c-2.458 1.226-3.529 5.407-2.388 9.828 1.12 4.34 4 7.447 6.7 7.447a3.4 3.4 0 0 0 .854-.108 4.71 4.71 0 0 0 3.083-3.5 12.367 12.367 0 0 0-.03-6.575M17.6 2.217a2.7 2.7 0 0 0-.46.04l-1.31.112A3.636 3.636 0 0 1 18.242 4.4a10.26 10.26 0 0 1 1.137 4.912 10.26 10.26 0 0 1-1.137 4.911 5.56 5.56 0 0 1-.708 1.005c.005-.082.01-.164.013-.246a9.16 9.16 0 0 0 1.682-5.67c0-3.76-1.694-6.819-3.776-6.819a2.9 2.9 0 0 0-2.262 1.363l-.119-.092a4.51 4.51 0 0 0-3.227-1.019A31.4 31.4 0 0 0 5.8 4.085l.031-.009A4.891 4.891 0 0 1 10.4 5.692a12.56 12.56 0 0 1 3.212 5.859 12.55 12.55 0 0 1 .025 6.681 5.333 5.333 0 0 1-2.463 3.337 1.25 1.25 0 0 1-.369.2 27.9 27.9 0 0 0 3.612-.718l.741-.309a7.076 7.076 0 0 0 2.171-3.984l.441-.035a.048.048 0 0 0 .035-.019.046.046 0 0 1 .035-.02c2.318-.21 4.16-3.366 4.16-7.23 0-3.997-1.971-7.237-4.4-7.237m-2.634 2.165.042 1.48c-.039-.057-.195-.279-.234-.334l-.02-.885-.682.023c-.038-.039-.249-.25-.287-.287Zm2.447-.217.4 9.588-.264-.012-.006-.113.152.006-.055-1.283-.221-.007q-.05-.352-.114-.7l.082.07-.058-2.214-.891-.89c-.085-.217-.175-.431-.268-.641l1.14 1.091-.138-4.61-1.885.162.066 1.788c-.039-.063-.162-.257-.2-.319L15.091 4.4l.6-.061z"/></svg>

<?xml version="1.0" encoding="UTF-8"?>
<svg width="24px" fill="#44739e" height="24px" viewBox="0 0 24 24" version="1.1" xmlns="http://www.w3.org/2000/svg" xmlns:xlink="http://www.w3.org/1999/xlink">
            <path d="m 13.064,11.6 c -1.12,-4.34 -4,-7.447 -6.7,-7.447 -0.1,0 -0.208,0 -0.312,0.014 l 0.168,1.2 a 0.621,0.621 0 0 1 -0.53,0.7 v 0 A 0.621,0.621 0 0 1 4.99,5.537 L 4.845,4.508 c -2.458,1.226 -3.529,5.407 -2.388,9.828 1.12,4.34 4,7.447 6.7,7.447 a 3.389,3.389 0 0 0 0.854,-0.108 4.71,4.71 0 0 0 3.083,-3.5 12.367,12.367 0 0 0 -0.03,-6.575 z M 17.6,2.217 a 2.712,2.712 0 0 0 -0.46,0.04 v 0 l -1.31,0.112 a 3.636,3.636 0 0 1 2.412,2.031 10.26,10.26 0 0 1 1.137,4.912 10.259,10.259 0 0 1 -1.137,4.911 5.561,5.561 0 0 1 -0.708,1.005 c 0.005,-0.082 0.01,-0.164 0.013,-0.246 a 9.161,9.161 0 0 0 1.682,-5.67 c 0,-3.76 -1.694,-6.819 -3.776,-6.819 A 2.9,2.9 0 0 0 13.191,3.856 L 13.072,3.764 A 4.509,4.509 0 0 0 9.845,2.745 31.42,31.42 0 0 0 5.8,4.085 L 5.831,4.076 a 4.891,4.891 0 0 1 4.569,1.616 12.558,12.558 0 0 1 3.212,5.859 12.552,12.552 0 0 1 0.025,6.681 5.333,5.333 0 0 1 -2.463,3.337 1.249,1.249 0 0 1 -0.369,0.2 27.918,27.918 0 0 0 3.612,-0.718 l 0.741,-0.309 a 7.076,7.076 0 0 0 2.171,-3.984 l 0.441,-0.035 a 0.048,0.048 0 0 0 0.035,-0.019 0.046,0.046 0 0 1 0.035,-0.02 C 20.158,16.474 22,13.318 22,9.454 22,5.457 20.029,2.217 17.6,2.217 Z m -2.634,2.165 0.042,1.48 C 14.969,5.805 14.813,5.583 14.774,5.528 L 14.754,4.643 14.072,4.666 C 14.034,4.627 13.823,4.416 13.785,4.379 Z m 2.447,-0.217 0.4,9.588 -0.264,-0.012 -0.006,-0.113 0.152,0.006 -0.055,-1.283 -0.221,-0.007 q -0.05,-0.352 -0.114,-0.7 l 0.082,0.07 L 17.329,9.5 16.438,8.61 C 16.353,8.393 16.263,8.179 16.17,7.969 L 17.31,9.06 17.172,4.45 15.287,4.612 15.353,6.4 C 15.314,6.337 15.191,6.143 15.153,6.081 L 15.091,4.4 l 0.6,-0.061 z"/>

</svg>
